public/assets/img/material-icons/token.svg

<svg height="24" viewBox="0 0 24 24" width="24" xmlns="http://www.w3.org/2000/svg"><path d="m19.97 6.43-7.97-4.43-7.97 4.43 5.07 2.81c.73-.76 1.76-1.24 2.9-1.24s2.17.48 2.9 1.24zm-9.97 5.57c0-1.1.9-2 2-2s2 .9 2 2-.9 2-2 2-2-.9-2-2zm1 9.44-8-4.44v-8.86l5.13 2.85c-.09.32-.13.66-.13 1.01 0 1.86 1.27 3.43 3 3.87zm2 0v-5.57c1.73-.44 3-2.01 3-3.87 0-.35-.04-.69-.13-1.01l5.13-2.85v8.86z"/></svg>

<svg xmlns="http://www.w3.org/2000/svg" width="24" height="24" viewBox="0 0 24 24"><path d="M19.97 6.43 12 2 4.03 6.43 9.1 9.24C9.83 8.48 10.86 8 12 8s2.17.48 2.9 1.24l5.07-2.81zM10 12c0-1.1.9-2 2-2s2 .9 2 2-.9 2-2 2-2-.9-2-2zm1 9.44L3 17V8.14l5.13 2.85c-.09.32-.13.66-.13 1.01 0 1.86 1.27 3.43 3 3.87v5.57zm2 0v-5.57c1.73-.44 3-2.01 3-3.87 0-.35-.04-.69-.13-1.01L21 8.14V17l-8 4.44z"/></svg>
